X:555
T:Suliko
Z:Jack Campin, http://www.campin.me.uk/
F:Jack Campin's Nine-Note Tunebook
% last edit 15-03-2013
G:Georgian part song
M:4/4
L:1/8
Q:1/4=100
V:1
V:2
V:3 transpose -12
N:Stalin's favourite song
K:C
[V:1]   GG EF G2 A>F|G6     z2|BBBB  B2 d>B|c6 z2 |
[V:2]   EE CD E2 F>D|E6     z2|GGGG  G2 F>F|E6 z2 |
[V:3]   cccc  c2 c>c|c6     z2|GGGG  G2 G>G|c6 z2 |
%
[V:1] |:cc Bc dcBA  |B2 A2 G4 |AA GG F2 G>F|E6 z2:|
[V:2] |:FFFF  F4    |G2 F2 E4 |FF EE D2 E>D|C6 z2:|
[V:3] |:FFFF  F4    |G2 G2 c4 |FF GG G2 G>G|c6 z2:|

